X:1
T:Arise! Arise!
M:3/4
L:1/8
K:Edor
E2|E4B2|B4B2|F2F2F2|E2D2D2|A4A2|(A2F2)A2|(d3c) d2|B4D2|E2E2E2|A4B2|e4e2|d2B2d2|(e2B2)B2|(B2A2)B2|(F E3)D2|E4|]
w:A-rise, a-rise, you slum-ber-ing sleep-er A-rise, a-rise,_ 'tis al-most_ day Go o-pen your doors, your doors and win-dows And hear_ what your_ true love_ doth say